web/ui/src/components/workflow/workflow-editor/svgs/shape/shell.svg

<svg height="200" viewBox="0 0 200 200" width="200" xmlns="http://www.w3.org/2000/svg"><g fill="none" fill-rule="evenodd"><rect fill="#fff" height="198" rx="51" stroke="#000" stroke-width="2" width="198" x="1" y="1"/><g fill-rule="nonzero" transform="translate(40 40)"><path d="m0 0h120v120h-120z" fill="#000" opacity="0"/><path d="m110.356633 0h-100.71326636c-5.32588433 0-9.64336664 4.31748231-9.64336664 9.64336664v100.71326636c.09336813 5.258914 4.38362386 9.472183 9.64336664 9.472183h100.71326636c5.193015-.091394 9.380789-4.279168 9.472183-9.472183v-100.71326636c0-5.25974278-4.213269-9.54999851-9.472183-9.64336664z" fill="#fff"/><g fill="#000" transform="translate(16 16)"><path d="m44.5722656 30.9492188h-19.875c-1.6171875 0-2.9296875 1.3125-2.9296875 2.9296874 0 1.6171875 1.3125 2.9296876 2.9296875 2.9296876h19.875c1.6171875 0 2.9296875-1.3125001 2.9296875-2.9296876 0-1.6171874-1.3125-2.9296874-2.9296875-2.9296874z"/><path d="m18.6738281 0c-.75 0-1.5.28125-2.0742187.85546875l-15.73828127 15.75000005c-1.14843751 1.1484375-1.14843751 3 0 4.1484375l15.74999997 15.75c.5742188.5742187 1.3242188.8554687 2.0742188.8554687s1.5-.28125 2.0742187-.8554687c1.1484375-1.1484375 1.1484375-3.0000001 0-4.1484375l-13.68749997-13.6757813 13.67578127-13.67578125c1.1484375-1.1484375 1.1484375-3 0-4.1484375-.5742188-.5625-1.3242188-.85546875-2.0742188-.85546875z" transform="matrix(-1 0 0 -1 21.621094 37.359376)"/></g></g></g></svg>

<?xml version="1.0" encoding="UTF-8"?>
<svg width="200px" height="200px" viewBox="0 0 200 200" version="1.1" xmlns="http://www.w3.org/2000/svg" xmlns:xlink="http://www.w3.org/1999/xlink">
    <title>node-version</title>
    <g id="页面-1" stroke="none" stroke-width="1" fill="none" fill-rule="evenodd">
        <g id="节点" transform="translate(-1837.000000, -404.000000)">
            <g id="飞书备份-3" transform="translate(1837.000000, 404.000000)">
                <rect id="矩形备份-39" stroke="#000000" stroke-width="2" fill="#FFFFFF" x="1" y="1" width="198" height="198" rx="51"></rect>
                <g id="编组-2" transform="translate(40.000000, 40.000000)" fill-rule="nonzero">
                    <g id="bg-code">
                        <rect id="矩形" fill="#000000" opacity="0" x="0" y="0" width="120" height="120"></rect>
                        <path d="M110.356633,0 L9.64336664,0 C4.31748231,0 0,4.31748231 0,9.64336664 L0,110.356633 C0.0933681298,115.615547 4.38362386,119.828816 9.64336664,119.828816 L110.356633,119.828816 C115.549648,119.737422 119.737422,115.549648 119.828816,110.356633 L119.828816,9.64336664 C119.828816,4.38362386 115.615547,0.0933681298 110.356633,0 Z" id="形状" fill="#FFFFFF"></path>
                        <g id="编组-4" transform="translate(16.000000, 16.000000)" fill="#000000">
                            <path d="M44.5722656,30.9492188 L24.6972656,30.9492188 C23.0800781,30.9492188 21.7675781,32.2617188 21.7675781,33.8789062 C21.7675781,35.4960937 23.0800781,36.8085938 24.6972656,36.8085938 L44.5722656,36.8085938 C46.1894531,36.8085938 47.5019531,35.4960937 47.5019531,33.8789062 C47.5019531,32.2617188 46.1894531,30.9492188 44.5722656,30.9492188 L44.5722656,30.9492188 Z" id="路径"></path>
                            <path d="M18.6738281,0 C17.9238281,0 17.1738281,0.28125 16.5996094,0.85546875 L0.861328125,16.6054688 C-0.287109375,17.7539063 -0.287109375,19.6054688 0.861328125,20.7539063 L16.6113281,36.5039063 C17.1855469,37.078125 17.9355469,37.359375 18.6855469,37.359375 C19.4355469,37.359375 20.1855469,37.078125 20.7597656,36.5039063 C21.9082031,35.3554688 21.9082031,33.5039062 20.7597656,32.3554688 L7.07226563,18.6796875 L20.7480469,5.00390625 C21.8964844,3.85546875 21.8964844,2.00390625 20.7480469,0.85546875 C20.1738281,0.29296875 19.4238281,0 18.6738281,0 Z" id="路径" transform="translate(10.810547, 18.679688) scale(-1, -1) translate(-10.810547, -18.679688) "></path>
                        </g>
                    </g>
                </g>
            </g>
        </g>
    </g>
</svg>
